packages/gestalt/src/icons/shopping-bag.svg

<svg width="24" height="24" viewBox="0 0 24 24" xmlns="http://www.w3.org/2000/svg"><path fill="#aeaeae" d="M9.50,5.00 C9.50,3.62 10.62,2.50 12.00,2.50 C13.38,2.50 14.50,3.62 14.50,5.00 L14.50,7.00 L9.50,7.00 L9.50,5.00 Z M17.00,7.00 L17.00,5.00 C17.00,2.24 14.76,0.00 12.00,0.00 C9.24,0.00 7.00,2.24 7.00,5.00 L7.00,7.00 L2.00,7.00 L2.00,22.00 C2.00,23.10 2.90,24.00 4.00,24.00 L20.00,24.00 C21.10,24.00 22.00,23.10 22.00,22.00 L22.00,7.00 L17.00,7.00 Z"/></svg>

<svg width="24" height="24" xmlns="http://www.w3.org/2000/svg"><path fill="#aeaeae" d="M9.5 5a2.5 2.5 0 0 1 5 0v2h-5V5zM17 7V5c0-2.76-2.24-5-5-5S7 2.24 7 5v2H2v15c0 1.1.9 2 2 2h16c1.1 0 2-.9 2-2V7h-5z"/></svg>
